X: 1
T: Glasgow Wedding
M: 3/4
L: 1/8
R: waltz
K: Dmaj
|fedefd| e2 c2 A2|BAGABG| A2 F2 D2|
GABdBd| cAGECA,|DEFGAB| c2 d2 e2|
fedefd| ea ca Aa|BAGABG| Ad Fd Dd|
GABdBd| cegecA|df e2 c2| d4 de|
fBdfbf| aece A2|GABdBd| efed c2|
fd B2 cd| ec A2 Bc|df e2 c2| d4 de|
fBdfbf| aece A2|GABdBd| efed c2|
fd B2 cd| ec A2 Bc|df e2 c2| d6|
